X:424
T: Masangshu
N: C1459
O: China,Hubei, Badong
S: I, 458]
R: Xiaodiao, Qingge]
M: 2/4
L: 1/16
K: G
G2G2G2E2 | d2e2d2B2 | B2BAG2A2 | BdA6 |
d2d2A2B2 | d4B4 | A2A2B2AB | d6B2 |
E2d2B2A2E2G2 | A2A2BdBA | G8

@@@ Tune index: 6425
